image/icons.svg

<svg viewBox="0 0 1390.98 230.27" xmlns="http://www.w3.org/2000/svg"><g transform="translate(-41.65 -12.87)"><path d="m147.19 32.06v105.53h24.08l-43.27 48.07-43.27-48.07h24.08v-105.53zm19.19-19.19h-76.76v105.54h-48l86.38 95.94 86.35-95.94h-48zm28.78 182.29v28.78h-134.32v-28.78h-19.19v48h172.7v-48z"/><path d="m1027.62 103.25c2.08-10 13.81-55.62 48.06-55.62 19.82 0 41.24 13.85 41.24 44.68 0 34.89-32.39 75.64-89.3 112.78-56.92-37.09-89.31-77.89-89.31-112.78 0-31.12 21.16-44.7 40.88-44.7 35.03 0 45.94 45.78 48.43 55.64zm-107.17-10.94c0 36.32 27.33 84.66 107.17 133.92 79.83-49.26 107.16-97.6 107.16-133.92 0-71.11-86.16-80.63-107.16-33.38-20.88-46.99-107.17-38.13-107.17 33.38z"/><path d="m1432.63 102.29h-34.28v-42.85h-42.85v-34.28h77.13zm-77.13 128.55v-34.28h42.85v-42.85h34.28v77.13zm-128.56-77.13h34.28v42.85h42.85v34.28h-77.13zm77.13-128.55v34.28h-42.85v42.85h-34.28v-77.13z"/><path d="m321.25 128 96.68 27.25 61.53-71.2-71.69 49.86-37.9-10.57 135-67.5-34.87 128.06-33-29.35-19.08 25.71v-6.76l-17.58-4.92v64.89l39.32-53 39.79 35.43 52.75-193.37z"/><path d="m802.13 50c-21.13-17-50-26.7-79.06-26.7-29.59 0-57.71 9.53-79.2 26.85-22.4 18.05-34.73 42.53-34.73 68.93a84.59 84.59 0 0 0 18.1 52.21l-20.45 65.33 71.21-30.73a182.36 182.36 0 0 0 43.88 5.58c32 0 61.41-9.65 82.71-27.18 20.88-17.23 32.41-40.39 32.41-65.21 0-26.48-12.38-51-34.87-69.08zm-80.3 143c-17.36 0-31.34-3-43.86-6.18l-1.55-.4-39.95 17.26 11.41-36.45-1.64-2c-9.67-11.56-18.62-25.16-18.62-46.17 0-42.62 42.82-77.3 95.45-77.3s95.45 34.68 95.45 77.3c0 42.16-41.52 73.94-96.69 73.94z" fill-rule="evenodd"/></g><circle cx="726.94" cy="106.15" r="18.34"/><path d="m723.07 137.36a18.35 18.35 0 1 1 18.34-18.36 18.36 18.36 0 0 1 -18.34 18.36z" fill-rule="evenodd" transform="translate(-41.65 -12.87)"/><path d="m677.55 137.36a18.35 18.35 0 1 1 18.35-18.36 18.36 18.36 0 0 1 -18.35 18.36z" fill-rule="evenodd" transform="translate(-41.65 -12.87)"/></svg>

<svg id="Layer_1" data-name="Layer 1" xmlns="http://www.w3.org/2000/svg" viewBox="0 0 1390.98 230.27"><defs><style>.cls-1{fill-rule:evenodd;}</style></defs><title>icons</title><path d="M147.19,32.06V137.59h24.08L128,185.66,84.73,137.59h24.08V32.06Zm19.19-19.19H89.62V118.41h-48L128,214.35l86.35-95.94h-48Zm28.78,182.29v28.78H60.84V195.16H41.65v48h172.7v-48Z" transform="translate(-41.65 -12.87)"/><path d="M1027.62,103.25c2.08-10,13.81-55.62,48.06-55.62,19.82,0,41.24,13.85,41.24,44.68,0,34.89-32.39,75.64-89.3,112.78C970.7,168,938.31,127.2,938.31,92.31c0-31.12,21.16-44.7,40.88-44.7C1014.22,47.61,1025.13,93.39,1027.62,103.25ZM920.45,92.31c0,36.32,27.33,84.66,107.17,133.92,79.83-49.26,107.16-97.6,107.16-133.92,0-71.11-86.16-80.63-107.16-33.38C1006.74,11.94,920.45,20.8,920.45,92.31Z" transform="translate(-41.65 -12.87)"/><path d="M1432.63,102.29h-34.28V59.44H1355.5V25.16h77.13ZM1355.5,230.84V196.56h42.85V153.71h34.28v77.13Zm-128.56-77.13h34.28v42.85h42.85v34.28h-77.13Zm77.13-128.55V59.44h-42.85v42.85h-34.28V25.16Z" transform="translate(-41.65 -12.87)"/><path d="M321.25,128l96.68,27.25,61.53-71.2-71.69,49.86-37.9-10.57,135-67.5L470,183.9l-33-29.35-19.08,25.71V173.5l-17.58-4.92v64.89l39.32-53,39.79,35.43L532.2,22.53Z" transform="translate(-41.65 -12.87)"/><path class="cls-1" d="M802.13,50C781,33,752.13,23.3,723.07,23.3c-29.59,0-57.71,9.53-79.2,26.85-22.4,18.05-34.73,42.53-34.73,68.93a84.59,84.59,0,0,0,18.1,52.21l-20.45,65.33L678,205.89a182.36,182.36,0,0,0,43.88,5.58c32,0,61.41-9.65,82.71-27.18C825.47,167.06,837,143.9,837,119.08,837,92.6,824.62,68.08,802.13,50Zm-80.3,143c-17.36,0-31.34-3-43.86-6.18l-1.55-.4-39.95,17.26,11.41-36.45-1.64-2c-9.67-11.56-18.62-25.16-18.62-46.17,0-42.62,42.82-77.3,95.45-77.3s95.45,34.68,95.45,77.3C818.52,161.22,777,193,721.83,193Z" transform="translate(-41.65 -12.87)"/><circle cx="726.94" cy="106.15" r="18.34"/><path class="cls-1" d="M723.07,137.36A18.35,18.35,0,1,1,741.41,119,18.36,18.36,0,0,1,723.07,137.36Z" transform="translate(-41.65 -12.87)"/><path class="cls-1" d="M677.55,137.36A18.35,18.35,0,1,1,695.9,119,18.36,18.36,0,0,1,677.55,137.36Z" transform="translate(-41.65 -12.87)"/></svg>
